svgs/light/laptop-medical.svg

<svg xmlns="http://www.w3.org/2000/svg" viewBox="0 0 640 512"><!--! Font Awesome Pro 6.6.0 by @fontawesome - https://fontawesome.com License - https://fontawesome.com/license (Commercial License) Copyright 2024 Fonticons, Inc. --><path d="M128 64l384 0c17.7 0 32 14.3 32 32l0 256 32 0 0-256c0-35.3-28.7-64-64-64L128 32C92.7 32 64 60.7 64 96l0 256 32 0L96 96c0-17.7 14.3-32 32-32zM33.9 416l572.3 0c-5.5 18.5-22.6 32-42.9 32L76.8 448c-20.3 0-37.4-13.5-42.9-32zM19.2 384C8.6 384 0 392.6 0 403.2C0 445.6 34.4 480 76.8 480l486.4 0c42.4 0 76.8-34.4 76.8-76.8c0-10.6-8.6-19.2-19.2-19.2L19.2 384zM304 112c-17.7 0-32 14.3-32 32l0 32-32 0c-17.7 0-32 14.3-32 32l0 32c0 17.7 14.3 32 32 32l32 0 0 32c0 17.7 14.3 32 32 32l32 0c17.7 0 32-14.3 32-32l0-32 32 0c17.7 0 32-14.3 32-32l0-32c0-17.7-14.3-32-32-32l-32 0 0-32c0-17.7-14.3-32-32-32l-32 0zm0 32l32 0 0 48c0 8.8 7.2 16 16 16l48 0 0 32-48 0c-8.8 0-16 7.2-16 16l0 48-32 0 0-48c0-8.8-7.2-16-16-16l-48 0 0-32 48 0c4.2 0 8.3-1.7 11.3-4.7s4.7-7.1 4.7-11.3l0-48z"/></svg>

<svg xmlns="http://www.w3.org/2000/svg" viewBox="0 0 640 512"><!--! Font Awesome Pro 6.4.0 by @fontawesome - https://fontawesome.com License - https://fontawesome.com/license (Commercial License) Copyright 2023 Fonticons, Inc. --><path d="M128 64H512c17.7 0 32 14.3 32 32V352h32V96c0-35.3-28.7-64-64-64H128C92.7 32 64 60.7 64 96V352H96V96c0-17.7 14.3-32 32-32zM33.9 416H606.1c-5.5 18.5-22.6 32-42.9 32H76.8c-20.3 0-37.4-13.5-42.9-32zM19.2 384C8.6 384 0 392.6 0 403.2C0 445.6 34.4 480 76.8 480H563.2c42.4 0 76.8-34.4 76.8-76.8c0-10.6-8.6-19.2-19.2-19.2H19.2zM304 112c-17.7 0-32 14.3-32 32v32H240c-17.7 0-32 14.3-32 32v32c0 17.7 14.3 32 32 32h32v32c0 17.7 14.3 32 32 32h32c17.7 0 32-14.3 32-32V272h32c17.7 0 32-14.3 32-32V208c0-17.7-14.3-32-32-32H368V144c0-17.7-14.3-32-32-32H304zm0 32h32v48c0 8.8 7.2 16 16 16h48v32H352c-8.8 0-16 7.2-16 16v48H304V256c0-8.8-7.2-16-16-16H240V208h48c4.2 0 8.3-1.7 11.3-4.7s4.7-7.1 4.7-11.3V144z"/></svg>
